X: 359
T: The Margravine's Waltz
%R: waltz
Z: 2014 John Chambers <jc:trillian.mit.edu>
B: Preston "Twenty four Country Dances for the Year 1799" p.160 #1
F: http://www.vwml.org/browse/browse-collections-dance-tune-books/browse-prestons1799# 2014-8-10
N: This is usually played in major nowadays.
M: 3/8
L: 1/16
K: Gmix
(3(DEF) |\
G2G2G2 | B2B2B2 | d2d2d2 | e4f2 |\
g2f2e2 | d2c2B2 | A2G2F2 | G4 :|
|: Bc |\
d2d2 ed | cBA2 AB | c2c2 dc | BAG2 Bc |\
d2d2g2 | e4g2 | abagfe | d4 :|
|: D2 |\
D2G2B2 | D2A2c2 | D2B2d2 | c4Bc |\
d2B2G2 | E4cB | A2G2F2 | G4 :|
% - - - - - - - - - - - - - - - - - - - - - - - - -
%%begintext align
%% Turn your Partner with the Right hand quite
%% round .| turn back with your Left hand :| lead
%% down two Cu: & foot it :|. lead back again to
%% the 2d Cu.s place :|: Hands 6 half round .||
%% Hands 6 back again :||
%%endtext
% - - - - - - - - - - - - - - - - - - - - - - - - -

%%sep 1 1 500
%%sep 1 1 500
